!!!!SEGMENT: Wil2008-O_gemma_clarissima.krn
!!!id: Wil2008
!!!AGN: Motet
!!!SCT: Ory
!!!voices: 4
!!!COM: Adrian Willaert
!!!OTL: O gemma clarissima
**kern	**kern	**kern	**kern
*part4	*part3	*part2	*part1
*staff4	*staff3	*staff2	*staff1
*I"Bass	*I"Tenor	*I"Altus	*I"Superius
*I'B	*I'T	*I'A	*I'S
*clefF4	*clefG2	*clefG2	*clefG2
*k[b-]	*k[b-]	*k[b-]	*k[b-]
*F:	*F:	*F:	*F:
*M2/1	*M2/1	*M2/1	*M2/1
*met(C|)	*met(C|)	*met(C|)	*met(C|)
!!section: Prima pars: O gemma clarissima
!!!OMD: Prima pars: O gemma clarissima
=1	=1	=1	=1
0r	0r	0f	0r
=2	=2	=2	=2
0r	0r	1a	0r
.	.	[1g	.
=3	=3	=3	=3
0r	0c	1g]	0r
.	.	1cc	.
=4	=4	=4	=4
0r	1e	1cc	0r
.	[1d	1b-y	.
=5	=5	=5	=5
0r	1d]	1.a	0f
.	1f	.	.
.	.	4g	.
.	.	4f	.
=6	=6	=6	=6
0r	1f	1cc	1a
.	1e	1c	[1g
=7	=7	=7	=7
0r	2.c	2.e	1g]
.	4d	4f	.
.	2e	2g	1cc
.	[2f	[2a	.
=8	=8	=8	=8
0r	4f]	4a]	1cc
.	4e	4g	.
.	2c	2e	.
.	2d	2f	1b-y
.	2e	2g	.
=9	=9	=9	=9
0F	2f	[0c	2.a
.	1a	.	.
.	.	.	4b-y
.	.	.	4cc
.	.	.	4dd
.	4g	.	[2cc
.	4f	.	.
=10	=10	=10	=10
1A	2e	1c]	2cc]
.	2f	.	4b-y
.	.	.	4a
[1G	2.g	1d	2.b-y
.	4a	.	4cc
=11	=11	=11	=11
1G]	1b-y	2.g	1dd
.	.	4f	.
1c	2a	4e	2.cc
.	.	4d	.
.	[2g	[2e	.
.	.	.	8b-yL
.	.	.	8aJ
=12	=12	=12	=12
1c	2g]	2e]	2g
.	4f	4d	1a
.	4e	4c	.
1B-y	2f	2d	.
.	2g	2d	2g
=13	=13	=13	=13
[0A	2.c	2.e	[0a
.	4d	4c	.
.	2e	1c	.
.	[2f	.	.
=14	=14	=14	=14
1A]	2f]	1.cc	0a]
.	2e	.	.
1r	[1f	.	.
.	.	2cc	.
=15	=15	=15	=15
1.F	1f]	1cc	1r
.	2r	[1a	[1cc
2F	[2f	.	.
=16	=16	=16	=16
1F	2f]	2a]	2cc]
.	2f	2a	2cc
[1B-y	1f	2.b-y	1dd
.	.	4cc	.
=17	=17	=17	=17
1B-]	1d	2dd	1ff
.	.	2dd	.
1c	1e	2.g	1ee
.	.	4a	.
=18	=18	=18	=18
1d	2.f	2b-y	2.dd
.	.	2a	.
.	4g	.	4ee
1d	2a	2.f	2ff
.	2b-y	.	2ff
.	.	4g	.
=19	=19	=19	=19
2.A	2.cc	1a	2.ee
4B-y	4b-y	.	4dd
2c	2g	2r	2ee
2G	[2b-y	2g	[2dd
=20	=20	=20	=20
1d	4b-]	2a	4dd]
.	4a	.	4cc
.	2f	2b-y	1ff
1c	1g	[1cc	.
.	.	.	2ee
=21	=21	=21	=21
2.F	[0f	0cc]	2.ff
4G	.	.	8eeL
.	.	.	8ddJ
2A	.	.	2cc
[2B-y	.	.	[2dd
=22	=22	=22	=22
2B-]	0f_	0r	2dd]
4A	.	.	4cc
4G	.	.	4b-y
[1F	.	.	2.a
.	.	.	4g
=23	=23	=23	=23
1F]	0f]	1.cc	0a
1r	.	.	.
.	.	2cc	.
=24	=24	=24	=24
1.B-y	1r	1dd	0r
.	[1f	2b-y	.
2B-y	.	2dd	.
=25	=25	=25	=25
1B-y	2f]	2dd	0r
.	2f	4cc	.
.	.	4b-y	.
1d	1f	2.a	.
.	.	4b-y	.
=26	=26	=26	=26
2c	1g	2cc	0r
1B-y	.	1dd	.
.	[1f	.	.
4A	.	4cc	.
4G	.	4b-y	.
=27	=27	=27	=27
2F	2f]	2a	1r
1A	4e	1cc	.
.	4d	.	.
.	2c	.	[1cc
4G	[2f	4b-y	.
4F	.	4a	.
=28	=28	=28	=28
1c	2f]	1g	2cc]
.	2e	.	2cc
1r	1f	2r	1cc
.	.	2a	.
=29	=29	=29	=29
1B-y	2r	2b-y	1dd
.	2f	2b-y	.
2.F	2f	2.a	[1cc
.	4e	.	.
4G	4d	8gL	.
.	.	8fJ	.
=30	=30	=30	=30
4A	2.c	1e	2cc]
4B-y	.	.	.
1c	.	.	4b-y
.	4d	.	4a
.	2e	[1g	2g
4B-y	2c	.	[2cc
4A	.	.	.
=31	=31	=31	=31
2G	1d	2g]	2cc]
2G	.	2g	2bni
1c	1e	1g	1cc
=32	=32	=32	=32
1F	1f	1a	2r
.	.	.	2cc
[1G	1d	[1g	2.b-y
.	.	.	4cc
=33	=33	=33	=33
1G]	2r	2g]	2dd
.	1B-y	4f	4g
.	.	4e	4a
1G	.	2d	4b-y
.	.	.	4cc
.	2B-y	[2g	[2dd
=34	=34	=34	=34
1A	1c	2g]	4dd]
.	.	.	4cc
.	.	2f#i	1cc
1G	1d	[1g	.
.	.	.	2bni
=35	=35	=35	=35
1.c	2.c	1g]	0cc
.	4d	.	.
.	2e	1r	.
4B-y	[2f	.	.
4A	.	.	.
=36	=36	=36	=36
2B-y	2f]	2r	0r
2c	4e	2g	.
.	4d	.	.
2.A	2c	2a	.
.	[2f	2f	.
4B-y	.	.	.
=37	=37	=37	=37
1G	2f]	1b-y	1r
.	2e	.	.
1F	2.f	2.a	2r
.	.	.	2cc
.	8eL	8gL	.
.	8dJ	8fJ	.
=38	=38	=38	=38
0r	2c	2e	2cc
.	2d	1a	2a
.	1B-y	.	1dd
.	.	2g	.
=39	=39	=39	=39
0r	1A	2.a	2.cc
.	.	8gL	8b-yL
.	.	8fJ	8aJ
.	1r	2e	2g
.	.	2f	[2cc
=40	=40	=40	=40
1r	0r	1d	2cc]
.	.	.	2bni
2r	.	2c	2.cc
2A	.	[2cc	.
.	.	.	4dd
=41	=41	=41	=41
2A	0r	4cc]	2ee
.	.	4b-y	.
2F	.	1a	1ff
1B-y	.	.	.
.	.	2g	4ee
.	.	.	4dd
=42	=42	=42	=42
0A	2r	0a	1cc
.	2e	.	.
.	2e	.	2r
.	2c	.	2cc
=43	=43	=43	=43
1F	0f	1a	2cc
.	.	.	2a
1B-y	.	1d	1dd
=44	=44	=44	=44
1.c	2.e	1g	2.cc
.	4f	.	8b-yL
.	.	.	8aJ
.	2g	1e	2g
4B-y	[2a	.	[2cc
4A	.	.	.
=45	=45	=45	=45
1d	4a]	1f	2cc]
.	4g	.	.
.	1f	.	2bni
1c	.	1g	[1cc
.	2e	.	.
=46	=46	=46	=46
[0F	1f	2.a	1cc]
.	.	4b-y	.
.	2r	1cc	[1a
.	2f	.	.
=47	=47	=47	=47
1F]	2f	2r	1a]
.	2f	2cc	.
2r	2.c	2cc	1r
2c	.	2cc	.
.	4d	.	.
=48	=48	=48	=48
2c	2e	2.g	0r
2c	2e	.	.
.	.	4a	.
2G	4d	2b-y	.
.	4c	.	.
2A	[2f	2a	.
=49	=49	=49	=49
2B-y	2f]	1g	2r
2c	2e	.	2cc
[1F	1f	[1a	2cc
.	.	.	2cc
=50	=50	=50	=50
1F]	2r	1a]	2.f
.	2c	.	.
.	.	.	4g
2r	2f	2r	2a
2F	2f	2cc	2a
=51	=51	=51	=51
2c	2e	2cc	2g
2A	2c	2cc	1cc
1B-y	2.d	2.f	.
.	.	.	2b-y
.	4d	4g	.
=52	=52	=52	=52
1F	2c	2a	1.cc
.	1f	2a	.
1c	.	2g	.
.	2e	[2cc	[2a
=53	=53	=53	=53
1d	1f	2cc]	4a]
.	.	.	4g
.	.	2bni	1f
1c	1g	[1cc	.
.	.	.	2e
=54	=54	=54	=54
0F	1a	1cc]	0f
.	1r	1r	.
=55	=55	=55	=55
1r	0f	0a	1r
1F	.	.	1cc
=56	=56	=56	=56
1c	1e	1g	1cc
1c	1e	1a	1cc
=57	=57	=57	=57
1.B-y	1.d	1.b-y	1.f
2B-y	2d	2b-y	2g
=58	=58	=58	=58
1F	1f	1.cc	1a
1F	1f	.	1a
.	.	2cc	.
=59	=59	=59	=59
0c	0e	2.cc	1g
.	.	8b-yL	.
.	.	8aJ	.
.	.	2g	[1cc
.	.	[2a	.
=60	=60	=60	=60
0d	1.f	4a]	2cc]
.	.	4g	.
.	.	4f	4bni
.	.	4e	4a
.	.	1f	1bni
.	4e	.	.
.	4d	.	.
=61	=61	=61	=61
0c	1e	0g	1cc
.	1r	.	1r
=62	=62	=62	=62
1r	0f	1r	0a
1F	.	1cc	.
=63	=63	=63	=63
1c	1e	1cc	1g
1c	1e	1cc	1a
=64	=64	=64	=64
1.B-y	1.d	1.f	1b-y
.	.	.	1b-y
2B-y	2d	2g	.
=65	=65	=65	=65
1F	1f	1a	1.cc
1F	1f	1a	.
.	.	.	2cc
=66	=66	=66	=66
0c	0e	1g	2.cc
.	.	.	8b-yL
.	.	.	8aJ
.	.	[1cc	2g
.	.	.	[2a
=67	=67	=67	=67
0d	0f	2cc]	4a]
.	.	.	4f
.	.	4bni	1ff
.	.	4a	.
.	.	1bni	.
.	.	.	4ee
.	.	.	4dd
=68	=68	=68	=68
1c	1g	[0cc	1ee
1F	1a	.	1ff
=69	=69	=69	=69
0c	0g	0cc]	0ee;
=70	=70	=70	=70
00Fl	00fl	00ccl	00ffl
==	==	==	==
*-	*-	*-	*-
!!!system-decoration: [*]
!!!RDF**kern: i = editorial accidental
!!!RDF**kern: l = terminal long
!!!ENC: Benjamin Ory
!!!END: 2022/2/22
!!!EED: Benjamin Ory
!!!EEV: 2022/02/06
!!!YEC: Copyright 2022 Benjamin Ory, All Rights Reserved
!!!ONB: Translated from MusicXML on 2022/02/06
